!!!OTL: Der grausame Bruder.
!!!OTL-incipit: 'Markrygrafen, kann ich jue Dochter wol krieg'n?'
!!!ARE: Europa, Mitteleuropa, Deutschland (BRD), Niedersachsen, Hannover, Gifhorn
!!!YOR: 3, S. 245
!!    1874 aufgezeichnet
!!!SCT: Q0068B
!!!YEM: Copyright 1995, estate of Helmut Schaffrath.
**kern	**text
*ICvox	*
*M6/8	*
*k[b-]	*
*F:	*
{8c	1._'Mark-
=1	=1
8c	-ry-
8f	-gra-
8f	-fen,
8f	kann
8g	ich
8a	jue
=2	=2
8a	Dochter
8g	.
8f	wolkrieg'n?'
4g}	.
{16c	'Mine
16c	.
=3	=3
(4b-	Doch-
8cc)	.
8.aL	-ter
16gJ	.
16fL	dei
16aJ	.
=4	=4
8.g	krie-
16f	-geſt
8e	du
4f}	nicht;
{8a	die
=5	=5
8.b-	iſt
16cc	ja
8b-	von
8.a	A-
16g	-del,
16fL	das
16aJ	.
=6	=6
8.g	biſt
16f	du
8e	ja
4f}	nicht.'
{8a	die
=7	=7
8.b-	iſt
16cc	ja
8b-	von
8.a	A-
16g	-del,
16fL	das
16aJ	.
=8	=8
8.g	biſt
16f	du
8e	ja
4f}	nicht.'
==	==
!!!AGN: Ballade, Schwangerschaft, Moral, Mord
!!!ONB: ESAC (Essen Associative Code) Database: BALLADE
!!!AMT: compound duple
!!!AIN: vox
!!!EED: Helmut Schaffrath
!!!EEV: 1.0
!!@@COMMENT:"E 16 925. Gifhorn (Hann.), 1874."
!!@@END:
!!!source: Deutsche Volkslieder mit ihren Melodien. Herausgegeben vom Deutschen Volksliedarchiv. Dritter Band Balladen. Berlin 1954.
!!!page: 245
!!!ENC: Anna Maria Matuszewska
!!!EEV: 2025/02/21
*-	*-
